X:139
T:Can y Ceiliog Du - The Black Cock's Song
M:2/4
L:1/8
Q:220
C:Trad.
R:Processional
K:D
DE | F>G FE | ED DE | F>G FE | D2 EF | G2 F2 | E2 D2|
| E2 F2 | FE DE | F>G FE | ED DE | F>G FE | D2 EF | G2 F2|
E2 D2 | E2 FE | D2 :|| FG | A>B AG | F>G AF |
G>A GF | E>F GE | F>G FE | DE FG | A2 E2 | E2 DE |
F>G FE | ED DE | F>G FE | D2 EF | G2 F2 | E2 D2 | E2 FE|
| D2 D2 ||
